!!!OTL: Zhuai dasheng hao
!!!ARE: Asia, China,ÿHeilongjiang, Yichun
!! III, 84
!!!SCT: C1551
!!!YEM: Copyright 1995, estate of Helmut Schaffrath.
**kern
*ICvox
*Ivox
!! 2+3 metric grouping
!! Mixed meters:  4/4; 5/4
*M5/4
*k[f#]
*G:
{4.g
8e
24dd
24b
24dd
24b
24dd
[24b
8b]
8r
=1
8ee
[8dd
16dd]
16b
16a
16g
8g
16a
16e
8g
8r
=2
8dd
8b
8ee
8dd
8b
8a
4g}
=3
{8b
8b
8f#
8a
8b
8b
8a
8r
=4
4a
8b
8a
8dd
8b
4a}
=5
{8b
8dd
8a
8g
8g
16a
16e
8g
8r
=6
8dd
8b
8dd
8ee
8b
8a
4g}
=7
{8b
8b
8f#
8a
8cc#
8b
8a
8r
=8
4a
8b
8a
8cc#
8b
4a}
=9
{8b
8dd
8a
16g
16g
8b
8a
8g
8r
=10
8dd
8b
8ee
8dd
8b
8a
4g}
=11
{8b
8b
16b
16cc#
8b
4.b
8r
=12
4a
8b
8a}
{8b
8g
8g
8e
8g
8r
=13
8dd
8b
8a
8g}
{8f#
16f#
16f#
8b
8b
8a
8r
=14
4a
8b
8a}
{8b
16b
16dd
8b
8a
8g
8r
=15
8dd
8b
8a
8g}
{8a
16a
16g
8e
8g
8a
8r
=16
4a
8b
8dd}
{8a
8g
8b
16a
16g
8g
8r
=17
8dd
8b
8a
8g}
{8e
16g
16g
8b
8dd
8a
8r
=18
4a
8b
8a}
{8a
8g
8b
8a
8g
8r
=19
*M4/4
8dd
8b
8a
8g
2g}
=20
*M5/4
{4.b
16b
16b
8b
16a
16a
8a
8b
8a
8r
=21
*M4/4
4a
8b
8a
8cc#
8b
4a}
=22
{8b
8dd
8a
16g
16g
8b
8a
8g
8r
=23
8dd
8b
8dd
8ee
8b
8a
4g}
=24
{8b
8dd
8e
8g
8b
8b
8a
8r
=25
4a
8b
8a
8dd
8b
4a}
=26
{8r
16dd
16dd
8a
16g
16g
8d
8e
4g
=27
8dd
8b
8ee
8dd
8b
8a
4g}
==
!!!AGN: Haozi, Senglin haozi, Guileng haozi
!!!AMT: irregular
!!!AIN: vox
!!!EED: Helmut Schaffrath
!!!EEV: 1.0
*-
